static/images/technologies/html5.svg

<svg xmlns="http://www.w3.org/2000/svg" viewBox="0 0 512 512">
	<title>HTML5 Logo</title>
	<polygon fill="#E44D26" points="107.644,470.877 74.633,100.62 437.367,100.62 404.321,470.819 255.778,512"/>
	<polygon fill="#F16529" points="256,480.523 376.03,447.246 404.27,130.894 256,130.894"/>
	<polygon fill="#EBEBEB" points="256,268.217 195.91,268.217 191.76,221.716 256,221.716 256,176.305 255.843,176.305 142.132,176.305 143.219,188.488 154.38,313.627 256,313.627"/>
	<polygon fill="#EBEBEB" points="256,386.153 255.801,386.206 205.227,372.55 201.994,336.333 177.419,336.333 156.409,336.333 162.771,407.634 255.791,433.457 256,433.399"/>
	<path d="M108.382,0h23.077v22.8h21.11V0h23.078v69.044H152.57v-23.12h-21.11v23.12h-23.077V0z"/>
	<path d="M205.994,22.896h-20.316V0h63.72v22.896h-20.325v46.148h-23.078V22.896z"/>
	<path d="M259.511,0h24.063l14.802,24.26L313.163,0h24.072v69.044h-22.982V34.822l-15.877,24.549h-0.397l-15.888-24.549v34.222h-22.58V0z"/>
	<path d="M348.72,0h23.084v46.222h32.453v22.822H348.72V0z"/>
	<polygon fill="#FFFFFF" points="255.843,268.217 255.843,313.627 311.761,313.627 306.49,372.521 255.843,386.191 255.843,433.435 348.937,407.634 349.62,399.962 360.291,280.411 361.399,268.217 349.162,268.217"/>
	<polygon fill="#FFFFFF" points="255.843,176.305 255.843,204.509 255.843,221.605 255.843,221.716 365.385,221.716 365.385,221.716 365.531,221.716 366.442,211.509 368.511,188.488 369.597,176.305"/>
</svg>

<?xml version="1.0" encoding="UTF-8" standalone="no"?>
<!DOCTYPE svg PUBLIC "-//W3C//DTD SVG 1.1//EN" "http://www.w3.org/Graphics/SVG/1.1/DTD/svg11.dtd">
<svg width="100%" height="100%" viewBox="0 0 512 512" version="1.1" xmlns="http://www.w3.org/2000/svg" xmlns:xlink="http://www.w3.org/1999/xlink" xml:space="preserve" xmlns:serif="http://www.serif.com/" style="fill-rule:evenodd;clip-rule:evenodd;stroke-linejoin:round;stroke-miterlimit:2;">
    <g transform="matrix(1,0,0,1,-0.227353,-1)">
        <path d="M75.027,100.49L437.428,100.49L404.234,469.712L256,511.091L106.856,470.622L75.027,100.49ZM361.399,268.217L360.291,280.411L349.62,399.962L348.937,407.634L256,433.391L256,433.399L255.791,433.457L162.771,407.634L156.409,336.333L201.994,336.333L205.227,372.55L255.801,386.206L255.843,386.195L255.843,386.191L306.49,372.521L311.761,313.627L154.38,313.627L143.219,188.488L142.132,176.305L369.597,176.305L368.511,188.488L366.442,211.509L365.531,221.716L191.76,221.716L195.91,268.217L361.399,268.217Z" style="fill:rgb(228,77,38);"/>
    </g>
    <g transform="matrix(1,0,0,1,17.7936,25.0797)">
        <g transform="matrix(1.12244,0,0,1.30943,-49.4962,-21.3642)">
            <path d="M108.382,0L131.459,0L131.459,22.8L152.569,22.8L152.569,0L175.647,0L175.647,69.044L152.57,69.044L152.57,45.924L131.46,45.924L131.46,69.044L108.383,69.044L108.383,0L108.382,0Z" style="fill-rule:nonzero;"/>
        </g>
        <g transform="matrix(1.12244,0,0,1.30943,-49.4962,-21.3642)">
            <path d="M205.995,22.896L185.678,22.896L185.678,0L249.398,0L249.398,22.896L229.073,22.896L229.073,69.044L205.995,69.044L205.995,22.896Z" style="fill-rule:nonzero;"/>
        </g>
        <g transform="matrix(1.12244,0,0,1.30943,-49.4962,-21.3642)">
            <path d="M259.511,0L283.574,0L298.376,24.26L313.163,0L337.235,0L337.235,69.044L314.253,69.044L314.253,34.822L298.376,59.371L297.979,59.371L282.091,34.822L282.091,69.044L259.511,69.044L259.511,0Z" style="fill-rule:nonzero;"/>
        </g>
        <g transform="matrix(1.12244,0,0,1.30943,-49.4962,-21.3642)">
            <path d="M348.72,0L371.804,0L371.804,46.222L404.257,46.222L404.257,69.044L348.72,69.044L348.72,0Z" style="fill-rule:nonzero;"/>
        </g>
    </g>
</svg>
